gtk-icons/Papirus-GTK/48x48/apps/kdiamond.svg

<?xml version="1.0" encoding="UTF-8" standalone="no"?>
<!-- Created with Inkscape (http://www.inkscape.org/) -->

<svg
   xmlns:dc="http://purl.org/dc/elements/1.1/"
   xmlns:cc="http://creativecommons.org/ns#"
   xmlns:rdf="http://www.w3.org/1999/02/22-rdf-syntax-ns#"
   xmlns:svg="http://www.w3.org/2000/svg"
   xmlns="http://www.w3.org/2000/svg"
   xmlns:sodipodi="http://sodipodi.sourceforge.net/DTD/sodipodi-0.dtd"
   xmlns:inkscape="http://www.inkscape.org/namespaces/inkscape"
   id="svg2817"
   height="48"
   width="48"
   version="1.0"
   inkscape:version="0.91 r"
   sodipodi:docname="kdiamond.svg">
  <sodipodi:namedview
     pagecolor="#ffffff"
     bordercolor="#666666"
     borderopacity="1"
     objecttolerance="10"
     gridtolerance="10"
     guidetolerance="10"
     inkscape:pageopacity="0"
     inkscape:pageshadow="2"
     inkscape:window-width="1600"
     inkscape:window-height="843"
     id="namedview21"
     showgrid="false"
     inkscape:zoom="1"
     inkscape:cx="31.377415"
     inkscape:cy="21.089382"
     inkscape:window-x="-4"
     inkscape:window-y="31"
     inkscape:window-maximized="1"
     inkscape:current-layer="svg2817"
     showguides="false" />
  <metadata
     id="metadata57">
    <rdf:RDF>
      <cc:Work
         rdf:about="">
        <dc:format>image/svg+xml</dc:format>
        <dc:type
           rdf:resource="http://purl.org/dc/dcmitype/StillImage" />
        <dc:title></dc:title>
      </cc:Work>
    </rdf:RDF>
  </metadata>
  <defs
     id="defs2819" />
  <rect
     id="rect3351"
     transform="matrix(-0.70710678,-0.70710678,-0.70710678,0.70710678,0,0)"
     rx="0.65555471"
     ry="0.65555471"
     height="13.111094"
     width="13.111094"
     y="-6.5555477"
     x="-24.940323"
     style="fill:#69b3de;fill-opacity:1" />
  <rect
     style="fill:#f0cc57;fill-opacity:1"
     x="-40.496677"
     y="-22.111893"
     width="13.111094"
     height="13.111094"
     ry="0.65555471"
     rx="0.65555471"
     transform="matrix(-0.70710678,-0.70710678,-0.70710678,0.70710678,0,0)"
     id="rect4142" />
  <rect
     style="fill:#e94a63"
     x="-40.496666"
     y="9.0007973"
     width="13.111094"
     height="13.111094"
     ry="0.65555471"
     rx="0.65555471"
     transform="matrix(-0.70710678,-0.70710678,-0.70710678,0.70710678,0,0)"
     id="rect4150" />
  <rect
     id="rect4152"
     transform="matrix(-0.70710678,-0.70710678,-0.70710678,0.70710678,0,0)"
     rx="0.65555471"
     ry="0.65555471"
     height="13.111094"
     width="13.111094"
     y="-6.5555477"
     x="-56.05302"
     style="fill:#69b746;fill-opacity:1" />
  <path
     inkscape:connector-curvature="0"
     style="opacity:0.3;fill:#000000;fill-opacity:1"
     d="m 4.2304688,12.5 -0.037109,0.03711 c -0.2568052,0.256806 -0.2568052,0.668976 0,0.925782 l 8.3437492,8.34375 c 0.256806,0.256805 0.668976,0.256805 0.925782,0 l 8.34375,-8.34375 c 0.256805,-0.256806 0.256805,-0.668976 0,-0.925782 L 21.769531,12.5 l -8.30664,8.306641 c -0.256806,0.256805 -0.668976,0.256805 -0.925782,0 L 4.2304688,12.5 Z m 22.0000002,0 -0.03711,0.03711 c -0.256805,0.256806 -0.256805,0.668976 0,0.925782 l 8.34375,8.34375 c 0.256806,0.256805 0.668976,0.256805 0.925782,0 l 8.34375,-8.34375 c 0.256805,-0.256806 0.256805,-0.668976 0,-0.925782 L 43.769531,12.5 l -8.30664,8.306641 c -0.256806,0.256805 -0.668976,0.256805 -0.925782,0 L 26.230469,12.5 Z m -22.0000002,22 -0.037109,0.03711 c -0.2568052,0.256806 -0.2568052,0.668976 0,0.925782 l 8.3437492,8.34375 c 0.256806,0.256805 0.668976,0.256805 0.925782,0 l 8.34375,-8.34375 c 0.256805,-0.256806 0.256805,-0.668976 0,-0.925782 L 21.769531,34.5 l -8.30664,8.306641 c -0.256806,0.256805 -0.668976,0.256805 -0.925782,0 L 4.2304688,34.5 Z m 22.0000002,0 -0.03711,0.03711 c -0.256805,0.256806 -0.256805,0.668976 0,0.925782 l 8.34375,8.34375 c 0.256806,0.256805 0.668976,0.256805 0.925782,0 l 8.34375,-8.34375 c 0.256805,-0.256806 0.256805,-0.668976 0,-0.925782 L 43.769531,34.5 l -8.30664,8.306641 c -0.256806,0.256805 -0.668976,0.256805 -0.925782,0 L 26.230469,34.5 Z"
     id="rect4158" />
  <path
     inkscape:connector-curvature="0"
     style="opacity:0.1;fill:#ffffff;fill-opacity:1"
     d="M 13,4 C 12.832428,4 12.665512,4.064957 12.537109,4.1933594 L 4.1933594,12.537109 c -0.2568052,0.256806 -0.2568052,0.668976 0,0.925782 L 4.2304688,13.5 12.537109,5.1933594 C 12.665512,5.064957 12.832428,5 13,5 c 0.167572,0 0.334488,0.064957 0.462891,0.1933594 L 21.769531,13.5 l 0.03711,-0.03711 c 0.256805,-0.256806 0.256805,-0.668976 0,-0.925782 L 13.462891,4.1933594 C 13.334488,4.0649568 13.167572,4 13,4 Z m 22,0 c -0.167572,0 -0.334488,0.064957 -0.462891,0.1933594 l -8.34375,8.3437496 c -0.256805,0.256806 -0.256805,0.668976 0,0.925782 L 26.230469,13.5 34.537109,5.1933594 C 34.665512,5.064957 34.832428,5 35,5 c 0.167572,0 0.334488,0.064957 0.462891,0.1933594 L 43.769531,13.5 l 0.03711,-0.03711 c 0.256805,-0.256806 0.256805,-0.668976 0,-0.925782 L 35.462891,4.1933594 C 35.334488,4.0649568 35.167572,4 35,4 Z M 13,26 c -0.167572,0 -0.334488,0.06496 -0.462891,0.193359 l -8.3437496,8.34375 c -0.2568052,0.256806 -0.2568052,0.668976 0,0.925782 L 4.2304688,35.5 12.537109,27.193359 C 12.665512,27.06496 12.832428,27 13,27 c 0.167572,0 0.334488,0.06496 0.462891,0.193359 l 8.30664,8.306641 0.03711,-0.03711 c 0.256805,-0.256806 0.256805,-0.668976 0,-0.925782 l -8.34375,-8.34375 C 13.334488,26.064957 13.167572,26 13,26 Z m 22,0 c -0.167572,0 -0.334488,0.06496 -0.462891,0.193359 l -8.34375,8.34375 c -0.256805,0.256806 -0.256805,0.668976 0,0.925782 l 0.03711,0.03711 8.30664,-8.306641 C 34.665512,27.06496 34.832428,27 35,27 c 0.167572,0 0.334488,0.06496 0.462891,0.193359 l 8.30664,8.306641 0.03711,-0.03711 c 0.256805,-0.256806 0.256805,-0.668976 0,-0.925782 l -8.34375,-8.34375 C 35.334488,26.064957 35.167572,26 35,26 Z"
     id="path4167" />
</svg>

<?xml version="1.0" encoding="UTF-8" standalone="no"?>
<!-- Created with Inkscape (http://www.inkscape.org/) -->
<svg id="svg2817" xmlns:rdf="http://www.w3.org/1999/02/22-rdf-syntax-ns#" xmlns="http://www.w3.org/2000/svg" height="48" width="48" version="1.0" xmlns:cc="http://creativecommons.org/ns#" xmlns:dc="http://purl.org/dc/elements/1.1/">
 <metadata id="metadata57">
  <rdf:RDF>
   <cc:Work rdf:about="">
    <dc:format>image/svg+xml</dc:format>
    <dc:type rdf:resource="http://purl.org/dc/dcmitype/StillImage"/>
    <dc:title/>
   </cc:Work>
  </rdf:RDF>
 </metadata>
 <rect id="rect3351" transform="matrix(-.70711 -.70711 -.70711 .70711 0 0)" rx=".65555" ry=".65555" height="13.111" width="13.111" y="-6.5555" x="-24.94" fill="#69b3de"/>
 <rect id="rect4142" transform="matrix(-.70711 -.70711 -.70711 .70711 0 0)" rx=".65555" ry=".65555" height="13.111" width="13.111" y="-22.112" x="-40.497" fill="#f0cc57"/>
 <rect id="rect4150" transform="matrix(-.70711 -.70711 -.70711 .70711 0 0)" rx=".65555" ry=".65555" height="13.111" width="13.111" y="9.0008" x="-40.497" fill="#e94a63"/>
 <rect id="rect4152" transform="matrix(-.70711 -.70711 -.70711 .70711 0 0)" rx=".65555" ry=".65555" height="13.111" width="13.111" y="-6.5555" x="-56.053" fill="#69b746"/>
 <path id="rect4158" opacity=".3" d="m4.2305 12.5-0.037109 0.03711c-0.25681 0.25681-0.25681 0.66898 0 0.92578l8.3437 8.3438c0.25681 0.2568 0.66898 0.2568 0.92578 0l8.3438-8.3438c0.2568-0.25681 0.2568-0.66898 0-0.92578l-0.037-0.037-8.3066 8.3066c-0.25681 0.2568-0.66898 0.2568-0.92578 0l-8.3065-8.307zm22 0-0.03711 0.03711c-0.2568 0.25681-0.2568 0.66898 0 0.92578l8.3438 8.3438c0.25681 0.2568 0.66898 0.2568 0.92578 0l8.3438-8.3438c0.2568-0.25681 0.2568-0.66898 0-0.92578l-0.037-0.037-8.3066 8.3066c-0.25681 0.2568-0.66898 0.2568-0.92578 0l-8.307-8.307zm-22 22-0.037109 0.03711c-0.25681 0.25681-0.25681 0.66898 0 0.92578l8.3437 8.3438c0.25681 0.2568 0.66898 0.2568 0.92578 0l8.3438-8.3438c0.2568-0.25681 0.2568-0.66898 0-0.92578l-0.037-0.037-8.3066 8.3066c-0.25681 0.2568-0.66898 0.2568-0.92578 0l-8.3065-8.307zm22 0-0.03711 0.03711c-0.2568 0.25681-0.2568 0.66898 0 0.92578l8.3438 8.3438c0.25681 0.2568 0.66898 0.2568 0.92578 0l8.3438-8.3438c0.2568-0.25681 0.2568-0.66898 0-0.92578l-0.037-0.037-8.3066 8.3066c-0.25681 0.2568-0.66898 0.2568-0.92578 0l-8.307-8.307z"/>
 <path id="path4167" opacity=".1" d="m13 4c-0.168 0-0.334 0.065-0.463 0.1934l-8.3436 8.3436c-0.25681 0.25681-0.25681 0.66898 0 0.92578l0.0371 0.037 8.3065-8.3066c0.129-0.1284 0.295-0.1934 0.463-0.1934 0.16757 0 0.33449 0.064957 0.46289 0.19336l8.307 8.3066 0.03711-0.03711c0.2568-0.25681 0.2568-0.66898 0-0.92578l-8.344-8.3436c-0.129-0.1284-0.295-0.1934-0.463-0.1934zm22 0c-0.16757 0-0.33449 0.064957-0.46289 0.19336l-8.3438 8.3437c-0.2568 0.25681-0.2568 0.66898 0 0.92578l0.037 0.037 8.307-8.3066c0.129-0.1284 0.295-0.1934 0.463-0.1934 0.16757 0 0.33449 0.064957 0.46289 0.19336l8.307 8.3066 0.03711-0.03711c0.2568-0.25681 0.2568-0.66898 0-0.92578l-8.344-8.3436c-0.129-0.1284-0.295-0.1934-0.463-0.1934zm-22 22c-0.16757 0-0.33449 0.06496-0.46289 0.19336l-8.3437 8.3438c-0.25681 0.25681-0.25681 0.66898 0 0.92578l0.0372 0.037 8.3065-8.307c0.129-0.128 0.295-0.193 0.463-0.193 0.16757 0 0.33449 0.06496 0.46289 0.19336l8.3066 8.3066 0.03711-0.03711c0.2568-0.25681 0.2568-0.66898 0-0.92578l-8.3438-8.3438c-0.129-0.127-0.295-0.192-0.463-0.192zm22 0c-0.16757 0-0.33449 0.06496-0.46289 0.19336l-8.3438 8.3438c-0.2568 0.25681-0.2568 0.66898 0 0.92578l0.03711 0.03711 8.3066-8.3066c0.129-0.129 0.295-0.194 0.463-0.194 0.16757 0 0.33449 0.06496 0.46289 0.19336l8.3066 8.3066 0.03711-0.03711c0.2568-0.25681 0.2568-0.66898 0-0.92578l-8.3438-8.3438c-0.129-0.127-0.295-0.192-0.463-0.192z" fill="#fff"/>
</svg>
